X: 10082
T: FACTORY SMOKE
B: K\"ohler's Violin Repository, v.1, 1885 p.8 #2
F: http://www.archive.org/details/klersviolinrepos01edin
Z: 2011 John Chambers <jc:trillian.mit.edu>
M: C|
L: 1/8
K: Gm
(d>c) |\
(B>A)G>^F (G>A)B>c | d2G2 G2(a>g) | (f>e)d>c (B>c)d>B | (3cdc (3BAG F2(d>c) |
(B>A)G^F (G>A)B>c | dg^fa g2(g>d) | (e>d)c=B (c>e)d>c | (c>B) G2G2 || (ga) |
bgdB | gdBG | DGBd gdbg | afcA fcAF | CFAc dcBA |
BAG^F GABc | dg^fa g2(g>d) | (e>d)c>=B (c>e)d>c | (cB)G2 G2 |]

%%sep 2 1 500

